X:1
T:Johnny Guitar (Instrumental)
C:Victor Young
Z:All Rights Reserved
L:1/8
M:4/4
K:G
V:1 treble nm="Solo Guitar" snm="Solo Guitar"
%%MIDI program 26
V:1
 z2"Emin" EE FF GG | B4- BA Bc |"Amin" d4- dc cd |"Emin" (3c"Gmaj7"dc B6 | z2 EE FF GG | %5
"Emin" B4- BA Bc |"Amin" de- e4 (3d_dc |"Emin" B8 | z4 z B ef |"Amin" g4- gg fe | g4- gg fe | %11
"Emin" g2 B6 | z4 z g"C " fe |"Cmaj7" g4- gg fe |"B7" f4- ff e^d |"Emin" e4- ee (3efe | %16
"D " d4- dd (3ded |"C " c4- (3ccd (3edc |"B7""Emin""Bmin" B8 | z2 EE FF GG |"Emin" B4- BA Bc | %21
"Amin" d4- dc cd |"Cmaj7" (3c"G "d"Emin"c"Cmaj7" B6 |"Emin" z2 EE FF GG |"Bsus47" B4- BA"Emin" Bc | %25
"Amin" de- e4 dc |"Emin""Bmin""Emin" B8 | z4 z B ef |"Amin""C ""Emin" g3"Amin" g2 g"C " f"Emin"e | %29
"Amin" g3"Cmaj7" g2 g fe |"Emin" g2 B6 | z4 z g fe |"C " g4- gg fe |"B7" f4- ff e^d | %34
"Emin""B " e4-"Emin" ee e/f/e |"D " d4- dd d/e/d |"C " c4- (3ccd (3edc |"B7" B8 | z4 z e fg | %39
"Emin" b4- ba bc' |"Amin" d'4- d'd' c'd' |"Cmaj7" (3c'd'c' b6 |"Emin" z2 ee ff gg | b4- ba bc' | %44
"Amin" e'6 d'c' |"Emin""G ""Emin" b6- b z | E2 GB eB GB |"Amin" A2 ce fe c"Bsus47"e | %48
"Amin" A2 ce fe ce |"Emin""Amin" G2"Bsus47" Be fe Be |"Emin" G2 Be fe Be |"Cmaj7" E2 Gc ec GE | %52
"B7" ^D2 FB ^dB AF |"Emin" E2 GB eB GE |"D " D2 FA d"Amin"A FD |"C " C2 Gc ec GE | %56
"B7" E B3 z E FG |"Emin" B4- BA Bc |"Amin" d4- dc cd |"Emin" (3c"G "dc"Bmin""Emin" B6 | %60
 z2 EE FF GG |"Cmaj7" B4- BA Bc |"Amin" de- e4 d"Esus47"c |"Emin""Bmin""Emin" B8 | z4 z B ef | %65
"Amin""C ""Emin" g3"Amin" g2 g"C " f"Emin"e |"Amin" g3"C " g2 g fe |"Emin" g2 B6 | %68
"Bsus47" z4 z g f"Emin"e |"C " g4- gg fe |"B7" f4- ff e^d |"Emin""B " e8 |"Emin" z4 z g f"Gmaj7"e | %73
"C " g4- gg fe |"B7" f4- ff e^d |"Emin""B ""Emin" e8 | z4 z g fe |"C " g4- gg fe |"B7" f4- ff e^d | %79
"Emin" e2 Be GB EG | E"E dim7"G Be- e4 |] %81

